X:1
T:Jesu, die süsse Gedächtnusz
T:Georg Vogler
T:Source : Catechismus---Würzburg---J.Volmari---1652. Editor : André Vierendeels (11/10/17).
T:Notes : Original clefs : C1,C3,C4,F4 Editorial accidentals above the staff Text by S.Bernardus ("Scriptures")
T:Jesu, die süsse Gedächtnusz
T:©
T:©
C:Georg Vogler
Z:©
%%score [ 1 2 3 4 ]
L:1/8
Q:1/4=120
M:2/2
K:F
V:1 treble nm="Soprano" snm="S"
V:2 treble nm="Alto" snm="A"
V:3 treble-8 nm="Tenor" snm="T"
V:4 bass nm="Bass" snm="B"
V:1
 G4 ^F2 G2 | A4 A4 | B6 AG | A8 | G4 ^F2 G2 | A4 ^F4 | G4 E4 | D8 | G4 ^F2 G2 | A4 A4 | B6 B2 | %11
w: Je- su, die|süs- se|Ge- dächt- nusz|dein,|bringt wah- re|Frewd dem|Hert- zen|mein,|süs- ser als|Ho- nig|Zuc- kers|
w: Je- su, der|Büs- ser|Zu- ver- *|sicht,|dem gü- tig|der nach|dir sich|richt,|dem lieb- lich|der dich|sucht und|
 A8 | d4 d2 c2 | d6 c2 | B4 A4 | G8 |] %16
w: Art,|ist mei- ner|Seel dein|Ge- gen-|wart.|
w: sicht,|zeig uns O|Herz, deim|An- ge-|sicht.|
V:2
 D4 D2 D2 | D4 D4 | D4 D4 | D8 | D4 D2 B,2 | D4 D4 | D4 C4 | D8 | D4 D2 D2 | D4 D4 | D4 D4 | D8 | %12
w: Je- su, die|süs- se|Ge- dächt-|nusz,|bringt wah- re|Frewd dem|Hert- zen|mein,|süs- ser als|Ho- nig|Zuc- kers|Art,|
w: Je- su, der|Hert- zen|Frewd und|Wohn,|ein schö- nes|Liecht und|Gna- den-|bronn,|glantzt hel- ler|als die|lie- be|Sonn,|
 F4 F2 F2 | F6 F2 | D4 D4 | D8 |] %16
w: ist mei- ner|Seel dein|Ge- gen-|wart;|
w: mit grös- erm|List flosz|nie kein|Strom.|
V:3
 B4 A2 B2 | A4 d4 | B4 G4 | ^F8 | B4 A2 G2 | ^F4 A4 | B4 A4 | A8 | B4 A2 B2 | A4 d4 | B6 G2 | ^F8 | %12
w: Je- su, die|süs- se|Ge- dächt-|nusz,|bringt wah- re|Frewd den|Hert- zen|mein,|süs- ser als|Ho- nig|Zuc- kers|Art,|
w: Was lie- ben|sey den|höch- sten|Gott,|wie nusz sey|hal- ten|sein Ge-|bott,|kein Aug, Ohr,|Hertz er-|grün- det|hat,|
 B4 B2 A2 | B6 A2 | G4 F4 |"^#" G8 |] %16
w: ist mei- ner|Seel dein|Ge- gen-|wart.|
w: der glaubts, der|liebt mit|Werck und|That.|
V:4
 G,4 D,2 G,2 | ^F,4 F,4 | G,4 G,4 | D,8 | G,,4 D,2 _E,2 | D,4 D,4 | G,,4 A,,4 | D,8 | %8
w: Je- su, die|süs- se|Ge- bächt-|nusz,|bringt wah- re|Frewd den|Hert- zen|mein,|
w: Gleich wie dein|Reich voll|Wun- der|ist,|und im Tri-|umph du|mäch- tig|bist,|
 G,,4 D,2 G,2 | ^F,4 F,4 | G,4 G,,4 | D,8 | B,,4 B,,2 F,2 | B,,6 F,2 | G,4 D,4 | G,,8 |] %16
w: süs- ser als|Ho- nig|Zuc- kers|Art,|ist mei- ner|Seel dein|Ge- gen-|wart.|
w: al- so gantz|un- ausz-|sprech- lich|ist,|wie süsz du|seyst Herz|Je- su|Christ.|

